X:1
T:Title
%%score { ( 1 3 ) | ( 2 4 ) }
L:1/8
M:6/8
K:Db
V:1 treble nm="Grand Piano"
V:3 treble 
V:2 bass 
V:4 bass 
V:1
 z3 z2[Q:1/4=84] [FA] | [FA]>[_F=G][=FA] [Fd]>[Ac][_GB] | [FA]>[EG][FA] [DF]2 [DF] | %3
 [EG]>[DF][EG] [GB]>[FA][EG] |[M:5/8] [DF]-[DF]- [DF]3 |[M:1/8] [FA] | %6
[M:3/4] [FA]>[_F=G] [=FA][Fd]- [Fd]/[Ac]/[_GB] | [FA]>[EG] [FA] F2 F | E>A AA- A/=G/B | %9
[M:5/8] A3- [GA]2 |[M:1/8] A |[M:3/4] e>d cc- c/B/A | [Fd]>[Ac] [GB] [FA]2 [FA] | e>d cc- c/B/A | %14
 d->[Ad-] [Gd-] [Fd]2 [A,FA] | [Af]>[Ae] [Ad][Bd]- [Bd]/[Ac]/[GB] | [FA]>[EG] [FA] [DF]2 [Fd] | %17
 c>d e[GA]- [GA]/[GB]/[Gc] |[M:5/8] [Fd]-[Fd]- [Fd]3 |] %19
V:2
 z3 z2 [D,A,] | [D,A,]>[D,A,][D,A,] [D,A,]>[D,A,][D,C] | [D,D]>[D,A,][D,A,] [D,A,]2 [D,A,] | %3
 [A,,A,]>[A,,A,][A,,A,] [A,,A,]>[A,,A,][A,,A,] |[M:5/8] [D,A,]-[D,A,]- [D,A,]3 |[M:1/8] [D,A,] | %6
[M:3/4] [D,A,]>[D,A,] [D,A,][D,A,]- [D,A,]/[D,A,]/[D,C] | [D,D]>[D,A,] [D,A,] [D,A,D]2 [D,A,D] | %8
 [E,A,C]>[E,A,C] [E,A,C][E,B,D]- [E,B,D]/[E,B,D]/[E,=G,D] |[M:5/8] [A,,A,]3[K:treble] [A,C]2 | %10
[M:1/8] [A,CG] |[M:3/4] [A,CG]>[A,DF] [A,EG][A,EG]- [A,EG]/[A,DG]/[A,CG] | %12
 [D,D]>[D,D] [D,D] [D,D]2 [D,D] | [A,CG]>[A,DF] [A,EG][A,EG]- [A,EG]/[A,DG]/[A,CG] | %14
 z z/ C/ B, A,2 D, | [D,D]>[E,C] [F,D][G,D]- [G,D]/[G,D]/[G,D] | %16
 [D,D]>[D,A,] [D,A,] [D,A,]2 [D,A,] | [A,E]>[A,F] [A,G][K:bass][A,,A,]- [A,,A,]/[A,,A,]/[A,,A,] | %18
[M:5/8] [D,A,]-[D,A,]- [D,A,]3 |] %19
V:3
 x6 | x6 | x6 | x6 |[M:5/8] x5 |[M:1/8] x |[M:3/4] x6 | x6 | x6 |[M:5/8] C3 z2 |[M:1/8] x | %11
[M:3/4] x6 | x6 | x6 | [DF]2 z2 z2 | x6 | x6 | x6 |[M:5/8] x5 |] %19
V:4
 x6 | x6 | x6 | x6 |[M:5/8] x5 |[M:1/8] x |[M:3/4] x6 | x6 | x6 |[M:5/8] x3[K:treble] x2 | %10
[M:1/8] x |[M:3/4] x6 | x6 | x6 | D,6 | x6 | x6 | x3[K:bass] x3 |[M:5/8] x5 |] %19

